src/pos-icons/logout-variant.svg

<svg height="24" viewBox="0 0 24 24" width="24" xmlns="http://www.w3.org/2000/svg"><path d="m14.08 15.59 2.59-2.59h-9.67v-2h9.67l-2.59-2.59 1.42-1.41 5 5-5 5zm4.92-12.59a2 2 0 0 1 2 2v4.67l-2-2v-2.67h-14v14h14v-2.67l2-2v4.67a2 2 0 0 1 -2 2h-14c-1.11 0-2-.9-2-2v-14c0-1.11.89-2 2-2z"/></svg>

<?xml version="1.0" encoding="UTF-8"?><!DOCTYPE svg PUBLIC "-//W3C//DTD SVG 1.1//EN" "http://www.w3.org/Graphics/SVG/1.1/DTD/svg11.dtd"><svg xmlns="http://www.w3.org/2000/svg" xmlns:xlink="http://www.w3.org/1999/xlink" version="1.1" id="mdi-logout-variant" width="24" height="24" viewBox="0 0 24 24"><path d="M14.08,15.59L16.67,13H7V11H16.67L14.08,8.41L15.5,7L20.5,12L15.5,17L14.08,15.59M19,3A2,2 0 0,1 21,5V9.67L19,7.67V5H5V19H19V16.33L21,14.33V19A2,2 0 0,1 19,21H5C3.89,21 3,20.1 3,19V5C3,3.89 3.89,3 5,3H19Z" /></svg>
